svg/us/ca/riverside.svg

<?xml version="1.0" encoding="UTF-8" standalone="no"?>
<!-- Created with Inkscape (http://www.inkscape.org/) -->
<svg
   xmlns:dc="http://purl.org/dc/elements/1.1/"
   xmlns:cc="http://creativecommons.org/ns#"
   xmlns:rdf="http://www.w3.org/1999/02/22-rdf-syntax-ns#"
   xmlns:svg="http://www.w3.org/2000/svg"
   xmlns="http://www.w3.org/2000/svg"
   xmlns:sodipodi="http://sodipodi.sourceforge.net/DTD/sodipodi-0.dtd"
   xmlns:inkscape="http://www.inkscape.org/namespaces/inkscape"
   width="800"
   height="480"
   id="svg2"
   sodipodi:version="0.32"
   inkscape:version="0.46"
   version="1.0"
   sodipodi:docname="Flag of Riverside, California.svg"
   inkscape:output_extension="org.inkscape.output.svg.inkscape">
  <defs
     id="defs4">
    <inkscape:perspective
       sodipodi:type="inkscape:persp3d"
       inkscape:vp_x="0 : 526.18109 : 1"
       inkscape:vp_y="0 : 1000 : 0"
       inkscape:vp_z="744.09448 : 526.18109 : 1"
       inkscape:persp3d-origin="372.04724 : 350.78739 : 1"
       id="perspective10" />
    <inkscape:perspective
       id="perspective3629"
       inkscape:persp3d-origin="372.04724 : 350.78739 : 1"
       inkscape:vp_z="744.09448 : 526.18109 : 1"
       inkscape:vp_y="0 : 1000 : 0"
       inkscape:vp_x="0 : 526.18109 : 1"
       sodipodi:type="inkscape:persp3d" />
    <inkscape:perspective
       id="perspective3696"
       inkscape:persp3d-origin="372.04724 : 350.78739 : 1"
       inkscape:vp_z="744.09448 : 526.18109 : 1"
       inkscape:vp_y="0 : 1000 : 0"
       inkscape:vp_x="0 : 526.18109 : 1"
       sodipodi:type="inkscape:persp3d" />
  </defs>
  <sodipodi:namedview
     id="base"
     pagecolor="#ffffff"
     bordercolor="#666666"
     borderopacity="1.0"
     gridtolerance="10000"
     guidetolerance="10"
     objecttolerance="10"
     inkscape:pageopacity="0.0"
     inkscape:pageshadow="2"
     inkscape:zoom="0.70710678"
     inkscape:cx="360.70692"
     inkscape:cy="380.24317"
     inkscape:document-units="px"
     inkscape:current-layer="layer1"
     showgrid="false"
     width="800px"
     inkscape:window-width="1280"
     inkscape:window-height="952"
     inkscape:window-x="-4"
     inkscape:window-y="-4"
     showguides="false"
     inkscape:guide-bbox="true">
    <inkscape:grid
       type="xygrid"
       id="grid2383"
       visible="true"
       enabled="true" />
    <sodipodi:guide
       orientation="1,0"
       position="0,533.08594"
       id="guide2469" />
    <sodipodi:guide
       orientation="1,0"
       position="800,-0.234375"
       id="guide2471" />
    <sodipodi:guide
       orientation="0,1"
       position="800.58203,0"
       id="guide2473" />
    <sodipodi:guide
       orientation="1,0"
       position="400,277.33594"
       id="guide2547" />
    <sodipodi:guide
       orientation="0,1"
       position="0.21875,480"
       id="guide3732" />
    <sodipodi:guide
       orientation="0,1"
       position="-177.30078,240"
       id="guide3734" />
  </sodipodi:namedview>
  <metadata
     id="metadata7">
    <rdf:RDF>
      <cc:Work
         rdf:about="">
        <dc:format>image/svg+xml</dc:format>
        <dc:type
           rdf:resource="http://purl.org/dc/dcmitype/StillImage" />
      </cc:Work>
    </rdf:RDF>
  </metadata>
  <g
     inkscape:label="Layer 1"
     inkscape:groupmode="layer"
     id="layer1">
    <rect
       style="opacity:1;fill:#0b45a1;fill-opacity:1;fill-rule:nonzero;stroke:none;stroke-width:4.50000000000000000;stroke-linecap:round;stroke-linejoin:round;stroke-miterlimit:4;stroke-dasharray:none;stroke-dashoffset:0;stroke-opacity:1"
       id="rect5301"
       width="800"
       height="480"
       x="0"
       y="0" />
    <rect
       style="opacity:1;fill:#f5dc0f;fill-opacity:1;fill-rule:nonzero;stroke:none;stroke-width:4.5;stroke-linecap:round;stroke-linejoin:round;stroke-miterlimit:4;stroke-dasharray:none;stroke-dashoffset:0;stroke-opacity:1"
       id="rect5307"
       width="800"
       height="240"
       x="0"
       y="0" />
    <g
       id="g5330">
      <path
         id="path5321"
         d="M 553,240 C 553,324.456 484.456,393 400,393 C 315.544,393 247,324.456 247,240 C 247,155.544 315.544,87 400,87 C 484.456,87 553,155.544 553,240 z"
         style="fill:none;fill-opacity:1;fill-rule:nonzero;stroke:#0b45a1;stroke-width:12;stroke-linecap:round;stroke-linejoin:round;stroke-miterlimit:4;stroke-dashoffset:0;stroke-opacity:1" />
      <path
         id="path5292"
         d="M 530,240 C 530,311.76 471.76,370 400,370 C 328.24,370 270,311.76 270,240 C 270,168.24 328.24,110 400,110 C 471.76,110 530,168.24 530,240 z"
         style="fill:#ffffff;fill-opacity:1;fill-rule:nonzero;stroke:none;stroke-width:4.5;stroke-linecap:round;stroke-linejoin:round;stroke-miterlimit:4;stroke-dashoffset:0;stroke-opacity:1" />
      <path
         id="path5267"
         d="M 400,87 C 315.54635,87 246.99999,155.54635 247,240 C 247,324.45365 315.54635,392.99999 400,393 C 484.45365,393 553.00002,324.45365 553,240 C 553,155.54635 484.45365,87.000001 400,87 z M 400,139.53125 C 455.45555,139.53126 500.46875,184.54445 500.46875,240 C 500.46876,295.45555 455.45555,340.46875 400,340.46875 C 344.54445,340.46876 299.53125,295.45555 299.53125,240 C 299.53124,184.54445 344.54445,139.53125 400,139.53125 z"
         style="fill:#ffffff;fill-opacity:1;fill-rule:nonzero;stroke:#0b45a1;stroke-width:4.5;stroke-linecap:round;stroke-linejoin:round;stroke-miterlimit:4;stroke-dasharray:none;stroke-dashoffset:0;stroke-opacity:1" />
      <path
         d="M 381.83592,97.408052 L 383.30898,130.9034 L 392.97799,129.81539 L 392.50891,120.0236 C 395.05756,120.07375 397.17107,120.03666 399.51253,119.89694 L 404.67513,130.06946 L 416.77491,131.38123 L 409.52581,118.27404 C 415.08017,116.5976 418.79549,113.53274 419.28082,108.33066 C 419.99844,100.57224 413.17349,96.016331 394.19103,96.420038 C 390.418,96.50028 386.07233,96.986561 381.83592,97.408052 z M 395.29222,101.82378 C 402.69235,101.71519 409.93216,102.4575 409.62333,107.99632 C 409.22434,115.15246 399.92596,114.20346 392.40732,114.17912 L 392.12915,101.90748 C 393.17182,101.86976 394.23506,101.83929 395.29222,101.82378 z M 285.98632,152.65118 L 292.21402,145.07308 L 318.16457,166.39934 L 311.93687,173.97743 L 285.98632,152.65118 z M 330.25325,154.94724 L 296.86948,140.20821 L 304.45655,132.87415 L 328.29416,143.18591 L 323.32762,118.71079 L 329.17133,115.07554 L 335.70832,150.71115 L 330.25325,154.94724 z M 492.85656,179.52795 L 523.46302,165.69015 L 536.6219,194.79498 L 531.31814,197.19293 L 522.2569,177.15125 L 514.86779,180.49202 L 522.75526,197.93753 L 517.57107,200.2814 L 509.68361,182.83589 L 502.24605,186.19855 L 512.10909,208.01363 L 506.81723,210.40619 L 492.85656,179.52795 z M 262.79912,197.28149 L 293.7616,211.11923 L 296.84649,201.91436 L 287.43362,197.75447 C 288.52859,195.45249 289.5105,193.18894 290.34713,190.9976 L 301.743,190.48087 L 307.8529,180.19184 L 292.99064,181.20417 C 293.74963,175.45218 292.48617,170.80452 287.94522,168.22052 C 281.17029,164.37239 274.68475,168.92625 266.76133,186.1817 L 262.79912,197.28149 z M 272.13924,187.40289 C 275.08692,180.61431 278.74405,174.32216 283.66452,176.88394 C 290.02178,180.19374 285.18322,188.59902 282.0656,195.44087 L 270.91327,190.31992 C 271.30816,189.35418 271.71814,188.37269 272.13924,187.40289 z M 439.59179,123.9353 C 450.16177,127.66126 451.07883,134.72325 437.52871,131.02647 C 432.63645,129.69173 428.41689,126.04147 427.55468,122.02749 L 421.45036,123.63825 C 422.33236,128.98957 429.04721,134.18999 433.13222,135.80759 C 446.3368,141.03639 452.53371,137.81712 455.45376,133.1562 C 458.44336,128.38429 455.84104,120.60696 444.4609,116.46838 C 430.28374,111.31511 433.88219,105.84956 444.71433,108.87073 C 450.99953,110.62372 453.27142,113.2597 456.50672,117.39922 L 461.37629,114.6617 C 458.9193,109.4267 454.12099,106.01359 448.04386,103.97842 C 436.02984,99.953248 429.27703,102.47658 426.59835,107.23492 C 423.85587,112.10658 426.9163,119.46714 439.59179,123.9353 z M 503.76846,140.48331 L 492.94603,129.87848 L 468.27818,153.55247 C 471.72083,156.46932 474.38722,158.88287 476.77052,161.44604 C 486.95051,172.39433 494.66059,175.6897 504.95371,168.52371 C 515.96468,160.85797 511.86059,149.20813 503.76846,140.48331 z M 499.11959,160.63704 C 492.98791,165.57909 484.76042,162.95361 480.24013,156.0699 L 495.62529,140.76812 C 502.76243,146.05922 506.93086,154.34123 499.11959,160.63704 z M 472.31814,115.9072 L 480.61921,121.13251 L 462.72555,149.55884 L 454.42447,144.33354 L 472.31814,115.9072 z M 347.07813,142.80745 L 335.40406,111.09492 L 365.7418,99.887868 L 367.70353,105.27959 L 346.99546,112.69247 L 349.7285,120.32727 L 367.75408,113.87464 L 369.67157,119.2312 L 351.64599,125.68382 L 354.39694,133.36869 L 376.93738,125.29987 L 378.98309,131.3864 L 347.07813,142.80745 z"
         style="fill:#0b45a1;fill-opacity:1;fill-rule:evenodd;stroke:none;stroke-width:1px;stroke-linecap:butt;stroke-linejoin:miter;stroke-opacity:1"
         id="path4030" />
      <path
         d="M 507.18395,265.11915 L 535.88408,287.05533 L 537.57834,281.21063 L 532.10034,276.84502 L 535.30736,260.51953 L 542.40886,258.23559 L 543.3669,247.86289 L 508.51578,258.33935 L 507.18395,265.11915 z M 517.71024,265.9258 L 529.07804,262.44871 L 527.01071,272.97257 L 517.71024,265.9258 z M 472.73468,322.49399 L 498.75927,344.13212 L 503.07049,340.05652 L 485.8274,325.76539 L 516.15344,324.28966 L 520.82005,317.74712 L 494.35797,296.23397 L 491.24011,301.12815 L 507.6107,314.46247 L 479.03508,316.4867 L 472.73468,322.49399 z M 497.84569,290.52921 L 501.95379,281.62219 L 532.45521,295.69004 L 528.34711,304.59707 L 497.84569,290.52921 z M 396.53571,365.45414 C 395.14026,375.62177 404.44421,384.32449 415.78986,384.34368 C 427.13553,384.36285 436.82517,376.02504 437.42306,365.72694 C 438.02092,355.42885 429.28046,347.09252 417.93409,347.04837 C 406.34617,347.00326 398.01809,354.65323 396.53571,365.45414 z M 416.95464,352.7625 C 423.18505,352.61975 428.09385,359.15303 427.79659,365.73637 C 427.4993,372.31971 422.65458,378.66795 416.41677,378.67687 C 410.17899,378.6858 405.91513,371.99235 406.33845,365.42103 C 406.74389,359.12756 410.31816,352.91457 416.95464,352.7625 z M 293.83208,265.93816 C 291.47535,256.72352 284.23685,250.71036 275.18404,250.05576 C 265.44456,249.35151 258.07657,259.17449 259.10087,270.45313 C 259.64116,276.40218 262.86681,284.15722 266.73045,287.85652 L 271.2992,284.67399 C 268.21945,281.21787 265.57148,275.58157 265.19304,271.54713 C 264.61149,265.3475 269.86147,259.8003 276.11211,259.77979 C 281.25198,259.76292 285.64851,263.25367 288.02624,268.13265 C 289.99971,272.1821 289.8439,277.13462 288.63791,281.0363 L 294.24351,280.98193 C 295.19653,276.04277 294.93146,270.83054 293.83208,265.93816 z M 354.11535,376.15364 L 362.50519,343.22953 L 393.00876,350.32211 L 391.8074,356.01745 L 370.2861,351.47777 L 368.52399,360.03113 L 387.25746,363.98274 L 386.08318,369.54964 L 367.34971,365.59802 L 363.83309,379.17576 L 354.11535,376.15364 z M 295.93387,339.7689 L 319.8175,315.40452 L 326.3116,321.50599 L 307.26328,341.55948 L 325.80602,356.79095 L 322.11973,361.27862 L 295.93387,339.7689 z M 346.18928,336.08011 L 354.95221,340.48721 L 339.86046,370.4952 L 331.09752,366.0881 L 346.18928,336.08011 z M 439.74802,342.84656 L 454.80811,372.64868 L 464.01786,368.33677 L 459.83326,359.79555 C 462.05324,358.54262 464.15863,357.25609 466.10364,355.94505 L 475.72199,362.07858 L 485.67815,355.23935 L 473.90014,349.45551 C 477.83012,345.18741 479.47054,340.65904 477.24295,335.93304 C 473.91538,328.88782 466.62463,328.21532 450.21653,337.77072 L 439.74802,342.84656 z M 454.16274,342.17605 C 460.47929,338.31927 466.20666,335.63024 468.75746,340.55641 C 472.05312,346.92102 463.25983,351.01231 456.77363,354.8149 L 451.48177,343.85666 C 452.36038,343.29393 453.26037,342.72701 454.16274,342.17605 z M 304.46821,294.70874 L 268.78982,298.10785 L 271.51345,303.89021 L 278.24677,303.12055 L 287.03237,317.24924 L 283.31313,324.00314 L 289.96937,332.22538 L 308.11678,300.57623 L 304.46821,294.70874 z M 296.21829,301.29602 L 290.27367,311.59061 L 284.61023,302.48287 L 296.21829,301.29602 z"
         style="fill:#0b45a1;fill-opacity:1;fill-rule:evenodd;stroke:none;stroke-width:1px;stroke-linecap:butt;stroke-linejoin:miter;stroke-opacity:1"
         id="path4611"
         sodipodi:nodetypes="ccccccccccccccccccccccccccccccsssccsssccssccsssccccccccccccccccccccccccccccccccccccccscccccccccccccccc" />
      <path
         id="path2435"
         d="M 400.00349,153.96982 C 397.32593,153.96982 395.14927,155.04243 395.14927,156.36196 L 395.14927,165.32898 L 386.32913,165.32898 C 385.14009,165.32898 384.17481,167.28777 384.17481,169.70059 C 384.17481,172.11339 385.14009,174.07218 386.32913,174.07218 L 395.14927,174.07218 L 395.14927,184.82981 L 380.92933,184.82981 C 379.74028,184.82981 378.77501,186.7886 378.77501,189.20141 C 378.77501,191.61421 379.74028,193.573 380.92933,193.573 L 395.14927,193.573 L 395.14927,198.79794 L 356.56029,198.79794 C 354.92547,198.79794 353.5946,201.49591 353.5946,204.81326 C 353.5946,208.13061 354.92547,210.82158 356.56029,210.82158 L 364.09344,210.82158 L 343.9491,288.01354 L 335.77247,288.01354 C 334.13764,288.01353 332.81377,290.7045 332.81377,294.02185 C 332.81377,297.33921 334.13764,300.03018 335.77247,300.03018 L 464.22752,300.03018 C 465.86235,300.03017 467.18622,297.33921 467.18622,294.02185 C 467.18623,290.7045 465.86235,288.01354 464.22752,288.01354 L 456.05089,288.01354 L 435.90656,210.82158 L 443.4397,210.82158 C 445.07453,210.82158 446.40539,208.13061 446.40539,204.81326 C 446.40539,201.49591 445.07452,198.79794 443.4397,198.79794 L 404.85073,198.79794 L 404.85073,193.573 L 419.07066,193.573 C 420.25971,193.573 421.22498,191.61421 421.22498,189.20141 C 421.22498,186.7886 420.25971,184.82981 419.07066,184.82981 L 404.85073,184.82981 L 404.85073,174.07218 L 413.67086,174.07218 C 414.8599,174.07218 415.82519,172.11339 415.82518,169.70059 C 415.82518,167.28777 414.8599,165.32898 413.67086,165.32898 L 404.85073,165.32898 L 404.85073,156.36196 C 404.85073,155.04243 402.68105,153.96982 400.00349,153.96982 z M 372.08822,210.82158 L 396.63911,210.82158 C 396.08825,211.31179 395.88369,212.12873 395.88369,212.96192 C 395.88369,213.92692 396.09535,214.89439 396.72305,215.38903 L 396.72305,216.30532 C 396.17585,216.44844 395.64588,216.62409 395.64588,217.18663 L 395.64588,218.5086 C 395.20548,218.55849 394.78551,218.78234 394.42883,219.58577 L 392.4074,219.58577 C 384.37371,219.58577 382.3502,225.61106 381.69174,232.21793 C 380.96848,239.47504 380.82857,247.20431 376.9774,255.23703 C 374.70268,259.98164 370.60511,263.94454 366.17082,267.8692 C 365.10908,268.80891 363.60566,270.11052 363.28906,272.02398 L 362.71551,275.48627 C 362.40778,277.34609 363.615,278.80307 364.95376,279.00454 C 373.76787,280.33093 382.90994,280.71891 392.35843,280.82312 C 393.65587,282.32396 396.59318,283.37613 400.00349,283.37613 C 403.41381,283.37613 406.34412,282.32396 407.64156,280.82312 C 417.09083,280.71895 426.23144,280.33103 435.04623,279.00454 C 436.385,278.80307 437.59221,277.34609 437.28448,275.48627 L 436.71093,272.02398 C 436.39433,270.11053 434.8979,268.80891 433.83617,267.8692 C 429.40188,263.94454 425.29732,259.98163 423.02259,255.23703 C 419.17142,247.20431 419.03152,239.47504 418.30825,232.21793 C 417.64979,225.61106 415.62628,219.58577 407.59259,219.58577 L 405.57116,219.58577 C 405.21448,218.78234 404.79451,218.55849 404.35411,218.5086 L 404.35411,217.18663 C 404.35411,216.62409 403.82415,216.44844 403.27694,216.30532 L 403.27694,215.38903 C 403.90464,214.89439 404.1163,213.92692 404.1163,212.96192 C 404.1163,212.12873 403.91174,211.31179 403.36088,210.82158 L 427.91178,210.82158 L 448.05611,288.01354 L 351.94388,288.01354 L 372.08822,210.82158 z"
         style="fill:#0b45a1;fill-opacity:1;fill-rule:nonzero;stroke:none;stroke-width:2;stroke-linecap:round;stroke-linejoin:round;stroke-miterlimit:4;stroke-dashoffset:0;stroke-opacity:1" />
    </g>
  </g>
</svg>

<svg xmlns="http://www.w3.org/2000/svg" width="800" height="480" version="1"><path fill="#0b45a1" stroke-width="4.5" stroke-linecap="round" stroke-linejoin="round" d="M0 0h800v480H0z"/><path fill="#f5dc0f" stroke-width="4.5" stroke-linecap="round" stroke-linejoin="round" d="M0 0h800v240H0z"/><path d="M553 240c0 84.456-68.544 153-153 153s-153-68.544-153-153S315.544 87 400 87s153 68.544 153 153z" fill="none" stroke="#0b45a1" stroke-width="12" stroke-linecap="round" stroke-linejoin="round"/><path d="M530 240c0 71.76-58.24 130-130 130-71.76 0-130-58.24-130-130 0-71.76 58.24-130 130-130 71.76 0 130 58.24 130 130z" fill="#fff" stroke-width="4.5" stroke-linecap="round" stroke-linejoin="round"/><path d="M400 87c-84.454 0-153 68.546-153 153s68.546 153 153 153 153-68.546 153-153S484.454 87 400 87zm0 52.531c55.456 0 100.469 45.013 100.469 100.469 0 55.456-45.013 100.469-100.469 100.469-55.456 0-100.469-45.013-100.469-100.469 0-55.456 45.013-100.469 100.469-100.469z" fill="#fff" stroke="#0b45a1" stroke-width="4.5" stroke-linecap="round" stroke-linejoin="round"/><path d="M381.836 97.408l1.473 33.495 9.669-1.088-.47-9.791c2.55.05 4.663.013 7.005-.127l5.162 10.172 12.1 1.312-7.25-13.107c5.555-1.676 9.27-4.741 9.756-9.943.717-7.759-6.108-12.315-25.09-11.911-3.773.08-8.119.567-12.355.988zm13.456 4.416c7.4-.109 14.64.633 14.331 6.172-.399 7.156-9.697 6.207-17.216 6.183l-.278-12.272c1.043-.037 2.106-.068 3.163-.083zM285.986 152.65l6.228-7.578 25.95 21.326-6.227 7.578-25.95-21.326zm44.267 2.296l-33.384-14.739 7.588-7.334 23.837 10.312-4.966-24.475 5.843-3.635 6.537 35.635-5.455 4.236zm162.604 24.581l30.606-13.838 13.159 29.105-5.304 2.398-9.061-20.042-7.39 3.341 7.888 17.446-5.184 2.343-7.887-17.445-7.438 3.363 9.863 21.815-5.292 2.392-13.96-30.878zm-230.058 17.753l30.963 13.838 3.084-9.205-9.412-4.16a93.306 93.306 0 0 0 2.913-6.756l11.396-.517 6.11-10.29-14.862 1.013c.759-5.752-.505-10.4-5.046-12.983-6.775-3.849-13.26.705-21.184 17.96l-3.962 11.1zm9.34-9.878c2.948-6.789 6.605-13.08 11.526-10.52 6.357 3.31 1.518 11.716-1.6 18.558l-11.152-5.121c.395-.966.805-1.947 1.226-2.917zm167.453-63.468c10.57 3.726 11.487 10.788-2.063 7.091-4.893-1.334-9.112-4.985-9.974-8.999l-6.105 1.611c.882 5.352 7.597 10.552 11.682 12.17 13.205 5.228 19.402 2.01 22.322-2.652 2.99-4.772.387-12.549-10.993-16.688-14.177-5.153-10.579-10.618.253-7.597 6.286 1.753 8.557 4.389 11.793 8.528l4.87-2.737c-2.458-5.235-7.256-8.648-13.333-10.684-12.014-4.025-18.767-1.501-21.446 3.257-2.742 4.872.318 12.232 12.994 16.7zm64.176 16.548l-10.822-10.605-24.668 23.674c3.443 2.917 6.11 5.33 8.493 7.894 10.18 10.948 17.89 14.244 28.183 7.078 11.01-7.666 6.907-19.316-1.186-28.04zm-4.648 20.154c-6.132 4.942-14.36 2.317-18.88-4.567l15.385-15.302c7.137 5.291 11.306 13.573 3.495 19.869zm-26.802-44.73l8.301 5.226-17.893 28.426-8.302-5.225 17.894-28.427zm-125.24 26.9l-11.674-31.712 30.338-11.207 1.962 5.392-20.709 7.412 2.733 7.635 18.026-6.452 1.918 5.356-18.026 6.453 2.75 7.685 22.541-8.07 2.046 6.087-31.905 11.421zM507.184 265.12l28.7 21.935 1.694-5.844-5.478-4.366 3.207-16.325 7.102-2.284.958-10.373-34.851 10.476-1.332 6.78zm10.526.806l11.368-3.477-2.067 10.524-9.3-7.047zm-44.975 56.568l26.024 21.638 4.311-4.075-17.243-14.292 30.326-1.475 4.667-6.543-26.462-21.513-3.118 4.894 16.37 13.334-28.575 2.025-6.3 6.007zm25.11-31.965l4.109-8.907 30.501 14.068-4.108 8.907-30.501-14.068zm-101.31 74.925c-1.395 10.168 7.91 18.87 19.255 18.89 11.346.019 21.035-8.319 21.633-18.617.598-10.298-8.143-18.634-19.489-18.679-11.588-.045-19.916 7.605-21.398 18.406zm20.42-12.692c6.23-.142 11.139 6.391 10.842 12.974-.298 6.584-5.142 12.932-11.38 12.94-6.238.01-10.502-6.684-10.079-13.255.406-6.293 3.98-12.506 10.617-12.659zm-123.123-86.824c-2.357-9.214-9.595-15.228-18.648-15.882-9.74-.704-17.107 9.118-16.083 20.397.54 5.95 3.766 13.704 7.63 17.404l4.568-3.183c-3.08-3.456-5.728-9.092-6.106-13.127-.582-6.2 4.668-11.747 10.92-11.767 5.139-.017 9.536 3.474 11.913 8.353 1.974 4.05 1.818 9.002.612 12.903l5.606-.054c.953-4.94.687-10.151-.412-15.044zm60.283 110.216l8.39-32.924 30.504 7.092-1.202 5.695-21.52-4.54-1.763 8.554 18.733 3.952-1.174 5.567-18.733-3.952-3.517 13.578-9.718-3.022zm-58.181-36.385l23.883-24.364 6.495 6.101-19.049 20.053 18.543 15.232-3.686 4.488-26.186-21.51zm50.255-3.689l8.763 4.407-15.092 30.008-8.762-4.407 15.091-30.008zm93.559 6.767l15.06 29.802 9.21-4.312-4.185-8.541a93.312 93.312 0 0 0 6.27-3.851l9.619 6.134 9.956-6.84-11.778-5.783c3.93-4.269 5.57-8.797 3.343-13.523-3.328-7.045-10.618-7.718-27.026 1.838l-10.469 5.076zm14.415-.671c6.316-3.857 12.044-6.546 14.594-1.62 3.296 6.365-5.497 10.456-11.983 14.259l-5.292-10.958c.878-.563 1.778-1.13 2.68-1.681zM304.468 294.71l-35.678 3.399 2.723 5.782 6.734-.77 8.785 14.13-3.719 6.753 6.656 8.222 18.148-31.649-3.649-5.867zm-8.25 6.587l-5.944 10.295-5.664-9.108 11.608-1.187z" fill="#0b45a1" fill-rule="evenodd"/><path d="M400.003 153.97c-2.677 0-4.854 1.072-4.854 2.392v8.967h-8.82c-1.189 0-2.154 1.959-2.154 4.372 0 2.412.965 4.371 2.154 4.371h8.82v10.758h-14.22c-1.189 0-2.154 1.959-2.154 4.371 0 2.413.965 4.372 2.154 4.372h14.22v5.225H356.56c-1.635 0-2.965 2.698-2.965 6.015 0 3.318 1.33 6.009 2.965 6.009h7.533l-20.144 77.192h-8.177c-1.634 0-2.958 2.69-2.958 6.008 0 3.317 1.324 6.008 2.958 6.008h128.456c1.634 0 2.958-2.69 2.958-6.008 0-3.317-1.324-6.008-2.958-6.008h-8.177l-20.144-77.192h7.533c1.635 0 2.965-2.691 2.965-6.009 0-3.317-1.33-6.015-2.965-6.015h-38.59v-5.225h14.22c1.19 0 2.155-1.959 2.155-4.372 0-2.412-.965-4.371-2.154-4.371h-14.22v-10.758h8.82c1.189 0 2.154-1.959 2.154-4.371 0-2.413-.965-4.372-2.154-4.372h-8.82v-8.967c0-1.32-2.17-2.392-4.848-2.392zm-27.915 56.852h24.551c-.55.49-.755 1.307-.755 2.14 0 .965.211 1.932.839 2.427v.916c-.547.143-1.077.32-1.077.882v1.322c-.44.05-.86.273-1.217 1.077h-2.022c-8.033 0-10.057 6.025-10.715 12.632-.724 7.257-.863 14.986-4.715 23.019-2.274 4.745-6.372 8.708-10.806 12.632-1.062.94-2.565 2.242-2.882 4.155l-.573 3.462c-.308 1.86.899 3.317 2.238 3.519 8.814 1.326 17.956 1.714 27.404 1.818 1.298 1.501 4.235 2.553 7.645 2.553 3.41 0 6.341-1.052 7.639-2.553 9.449-.104 18.59-.492 27.404-1.818 1.339-.202 2.546-1.659 2.238-3.519l-.573-3.462c-.317-1.913-1.813-3.215-2.875-4.155-4.434-3.924-8.539-7.887-10.813-12.632-3.852-8.033-3.991-15.762-4.715-23.02-.658-6.606-2.682-12.631-10.715-12.631h-2.022c-.357-.804-.776-1.028-1.217-1.077v-1.322c0-.563-.53-.739-1.077-.882v-.916c.628-.495.84-1.462.84-2.427 0-.833-.205-1.65-.756-2.14h24.55l20.145 77.192h-96.112l20.144-77.192z" fill="#0b45a1" stroke-width="2" stroke-linecap="round" stroke-linejoin="round"/></svg>
